svgs/duotone/ethernet.svg

<svg xmlns="http://www.w3.org/2000/svg" viewBox="0 0 512 512"><!--! Font Awesome Pro 6.0.0 by @fontawesome - https://fontawesome.com License - https://fontawesome.com/license (Commercial License) Copyright 2022 Fonticons, Inc. --><defs><style>.fa-secondary{opacity:.4}</style></defs><path class="fa-primary" d="M96 448h32v-128H96V448zM192 448h32v-128H192V448zM288 448h32v-128h-32V448zM384 320v128h32v-128H384z"/><path class="fa-secondary" d="M512 208v224c0 8.75-7.25 16-16 16H416v-128h-32v128h-64v-128h-32v128H224v-128H192v128H128v-128H96v128H16C7.25 448 0 440.8 0 432v-224C0 199.2 7.25 192 16 192H64V144C64 135.2 71.25 128 80 128H128V80C128 71.25 135.2 64 144 64h224C376.8 64 384 71.25 384 80V128h48C440.8 128 448 135.2 448 144V192h48C504.8 192 512 199.2 512 208z"/></svg>

<svg xmlns="http://www.w3.org/2000/svg" viewBox="0 0 512 512"><!-- Font Awesome Pro 5.15.3 by @fontawesome - https://fontawesome.com License - https://fontawesome.com/license (Commercial License) --><defs><style>.fa-secondary{opacity:.4}</style></defs><path d="M512 208v224a16 16 0 0 1-16 16h-80V320h-32v128h-64V320h-32v128h-64V320h-32v128h-64V320H96v128H16a16 16 0 0 1-16-16V208a16 16 0 0 1 16-16h48v-48a16 16 0 0 1 16-16h48V80a16 16 0 0 1 16-16h224a16 16 0 0 1 16 16v48h48a16 16 0 0 1 16 16v48h48a16 16 0 0 1 16 16z" class="fa-secondary"/><path d="M192 448h32V320h-32zm-96 0h32V320H96zm192 0h32V320h-32zm96-128v128h32V320z" class="fa-primary"/></svg>
